X:62
T:Denis Murphy's Polka
M:2/4
E:10
R:polka
K:D
fgfe d3B|A2D2 F2A2|G2E2 e3d|c2B2 B2A2|fgfe d3B|A2D2 F2A2|G2E2 e3f|e2d2 d3:|
B|A2f2 fef2|A2g2 gfg2|A2f2 fef2|efed B2A2 |A2f2 fef2|A2g2 g3a|b2a2 g2c2|e2d2 d3:|
%%%%%%%%%%%%%%%%%%%%%%%%%%%%%%%%%%%%%%%%%%%%%%%%%%%%%%%%%%%%%%%%%%%%%
%%%%%%%%%%%%%%%%%%%%%%%%%% SESSION TUNES II %%%%%%%%%%%%%%%%%%%%%%%%%
%%%%%%%%%%%%%%%%%%%%%%%%%%%%%%%%%%%%%%%%%%%%%%%%%%%%%%%%%%%%%%%%%%%%%
		  	Compiled and deranged by John B. Walsh
					
%%%%%%%%%%%%%%%%%%%%%%%%%%%%%%%%%%%%%%%%%%%%%%%%%%%%%%%%%%%%%%%%%%%%%
%%%%%%%%%%%%%%%%%%%%%%%%%% INTRODUCTION %%%%%%%%%%%%%%%%%%%%%%%%%%%%%
%%%%%%%%%%%%%%%%%%%%%%%%%%%%%%%%%%%%%%%%%%%%%%%%%%%%%%%%%%%%%%%%%%%%%
   This file contains a number of well-known Irish jigs, reels,
hornpipes, and polkas, written out in abc notation. All of them (with
one or two possible exceptions that I slipped in bacause I liked them)
are reasonably common session tunes. The notation is straightforward,
and can be read directly with a little practice, or it can be
converted to standard music notation with Chris Walshaw's program
abc2mtex. The notation is explained in the documentation for the program
abc2mtex, and can be found on the ceolas archive at celtic.stanford.edu.
   There may be quite different versions of some of the tunes floating
around. A few tunes are transcribed from particular performances, but in general I have tried to give settings which are close to what I hear
played in sessions.  
   Quite a lot is left to the player. The settings are basic: the only
decorations indicated explicitly are rolls, triplets and quadruplets;
first and second endings are only written out when they are
substantially different.
    There are notes on the tunes in an accompanying file,
sessionTunesII.txt. I apologize in advance for the many typos which have
surely escaped my proof-reading. Please let me know about any obvious
errors in either the tunes or the notes, or any settings which seem
too much at variance with what is played in your own area. I'd also be
interested in any more lore about the tunes.
   When I knew the composer of a tune, I indicated it, but I only know
the composers of a couple of them. If any others have known composers, I
would appreciate hearing about it. As far as I know, all the the tunes
are in the public domain.
   To print them out, first process this file with the program
abc2mtex, which will convert it to a Music Te
<end>
<start>
X file, and then run that
file through Music Te
<end>
<start>
X. See the abc2mtex documentation to see how to
do this. Both abc2mtex and Music Te
<end>
<start>
X are available for anonymous ftp
on the ceolas archive at celtic.stanford.edu.
   Some technicalities: the tunes are set-up for printing out at eight
bars per line (saves paper) with Music Te
<end>
<start>
X's 17 point music font, with
the music right-justified. The file header.tex, where abc2mtex looks
up the parameters, has entries for the page length, width, margins and
fonts: 
				% page length
				\vsize=9.5in
				% page width
				\hsize=7.7in
				% top margin
				\voffset=-0.25in
				% left margin
				\hoffset=-0.75in
				\musicsize=17\relax
   This works on 8 1/2 x 11 paper, but may not be good for A4, which
is narrower. The output might look better at 4 bars per line with a
larger font, (\musicsize=20) but to make it look nice one has to do
two things: first, replace the backslashes by asterisks at the end of
each 4-bar line (this causes the program to right-justify the lines) and
then fool around with the "E:" field, which governs the note spacing.
Increase the number if the lines are too cramped, (e.g. replace E:7 by
E:10) decrease it if they overflow. The right-justification of lines
looks good if the note spacing is right, but it can look awful if the
note spacing is wrong. To turn it off, just remove all the asterisks
from the end of the lines with a global search-and-replace. 
	Enjoy!
	John Walsh
	walsh@math.ubc.ca
	May 11, 1995
%%%%%%%%%%%%%%%%%%%%%%%%%%%%%%%%%%%%%%%%%%%%%%%%%%%%%%%%%%%%%%%%%%%%%
%%%%%%%%%%%%%%%%%%%%%%%%%%%  JIGS   %%%%%%%%%%%%%%%%%%%%%%%%%%%%%%%%%
%%%%%%%%%%%%%%%%%%%%%%%%%%%%%%%%%%%%%%%%%%%%%%%%%%%%%%%%%%%%%%%%%%%%%
<end>
<start>
